X:388
T:Keppel's Delight
S:Colin Hume's website,  colinhume.com  - chords can also be printed below the stave.
Q:3/8=120
M:6/8
L:1/8
N:Used in the Apted Book for the dance "Bath Carnival".
K:A
P:A
|: "A"c2d edc | "D"fga fga | "Bm"fed "F#m"cBA | "E"GBA "E7"GFE |\
"A"c2d edc | "D"fga "A"ega | "Bm"fed "E7"cdB | "A"A3 A3 :|
P:B
|: "E"BEE "A/E"cEE | "E"dEE "A/E"cEE | "E"BEE "A/E"cEE | "E"B2E EEE |\
"E"BEE "A/E"cEE | "E"dEE "A/E"cEE | "E"Bdc "E7"BAG | "A"A6 :|

